src/images/logo.svg

<svg width="166" height="40" viewBox="0 0 166 40" fill="none" xmlns="http://www.w3.org/2000/svg">
<path d="M41.5625 24.6562H45.4688C45.7188 26.7344 47.7969 28.0938 50.5469 28.0938C53.2656 28.0938 55.1562 26.75 55.1562 24.875C55.1562 23.25 54 22.3125 51.1562 21.6406L48.2344 20.9531C44.0781 20 42.1094 18 42.1094 14.7812C42.1094 10.7812 45.5938 8.07812 50.5 8.07812C55.4688 8.07812 58.75 10.7656 58.8438 14.7344H55C54.8125 12.625 53.0469 11.3594 50.4688 11.3594C47.9219 11.3594 46.2031 12.6094 46.2031 14.4844C46.2031 15.9844 47.3438 16.8594 50.1094 17.5156L52.7031 18.1094C57.2812 19.1562 59.2188 21.0469 59.2188 24.4062C59.2188 28.6875 55.7812 31.375 50.3281 31.375C45.1406 31.375 41.7344 28.8125 41.5625 24.6562ZM66.2969 8.45312V22.6875C66.2969 25.7656 68.1875 27.8594 71.5312 27.8594C74.875 27.8594 76.7812 25.7656 76.7812 22.6875V8.45312H80.7969V23.0469C80.7969 27.9688 77.25 31.375 71.5312 31.375C65.8281 31.375 62.2656 27.9688 62.2656 23.0469V8.45312H66.2969ZM108.062 8.45312V31H104.438V15H104.328L97.8125 30.8125H95.0625L88.5469 15H88.4375V31H84.7969V8.45312H89.4688L96.375 25.4688H96.5L103.406 8.45312H108.062ZM135.312 8.45312V31H131.688V15H131.578L125.062 30.8125H122.312L115.797 15H115.688V31H112.047V8.45312H116.719L123.625 25.4688H123.75L130.656 8.45312H135.312ZM143.328 31H139.297V8.45312H143.328V31ZM156.938 31H152.906V11.8594H146.062V8.45312H163.781V11.8594H156.938V31Z" fill="white"/>
<g clip-path="url(#clip0_98_2512)">
<path d="M37.1642 5.01121C38.2663 4.97307 38.8841 5.04172 39.2578 5.07604H53.7188V10.9756H46.9307C46.9307 10.9756 42.3773 10.987 40.0282 10.9756C35.2269 11.0099 30.7231 11.8451 30.502 11.8718L37.1642 5.01121Z" fill="url(#paint0_linear_98_2512)"/>
<path d="M18.0963 17.5044C18.5082 18.0383 18.5082 18.0612 18.9239 18.6485C26.406 29.1662 36.7293 28.1365 37.164 28.087V33.9941C37.0496 34.0094 37.1335 34.0399 36.1268 34.0399C32.0577 34.0399 21.7917 32.873 14.1074 22.0692C13.8938 21.7717 13.8938 21.7641 13.6841 21.4781L18.0963 17.5044Z" fill="url(#paint1_linear_98_2512)"/>
<path d="M13.4708 21.1997C6.2441 11.4676 0.397949 10.926 0.397949 10.926V5.04175C1.27888 5.06082 8.92502 5.57183 17.6847 16.9705L13.4708 21.1997Z" fill="url(#paint2_linear_98_2512)"/>
<path d="M3.91398 24.8113C-3.58725 28.6134 -9.86433 28.1405 -10.2495 28.1138L-10.7109 34.0057C-10.6118 34.0133 -10.177 34.0439 -9.46391 34.0439C-7.00799 34.0439 -1.45166 33.7617 5.11906 30.7718L3.91398 24.8113Z" fill="url(#paint3_linear_98_2512)"/>
<path d="M39.2577 5.06425C38.7848 5.01849 37.6598 4.94603 36.0619 5.06425H36.039L36.0314 5.06807C31.3064 5.42272 22.4972 7.4439 14.2942 16.7299C10.5188 21.001 6.45361 23.6819 2.73541 25.3599C-2.34422 31.2099 -10.7188 33.9938 -10.7188 33.9938C-10.6196 34.0014 -10.1849 34.0319 -9.47172 34.0319C-5.38742 34.0319 7.80361 33.0022 18.7256 20.6387C25.5404 12.924 28.4005 12.3481 32.3552 11.3909C32.3552 11.3909 35.9971 9.50702 40.703 8.07313C47.3919 5.94518 53.7148 5.06425 53.7148 5.06425H39.2577Z" fill="#4CA58A"/>
</g>
<defs>
<linearGradient id="paint0_linear_98_2512" x1="36.5519" y1="4.13009" x2="50.5344" y2="15.0544" gradientUnits="userSpaceOnUse">
<stop offset="0.2147" stop-color="#035421"/>
<stop offset="0.2726" stop-color="#08622B"/>
<stop offset="0.4333" stop-color="#158344"/>
<stop offset="0.5866" stop-color="#1E9B56"/>
<stop offset="0.7282" stop-color="#24AA60"/>
<stop offset="0.8466" stop-color="#26AF64"/>
</linearGradient>
<linearGradient id="paint1_linear_98_2512" x1="23.957" y1="16.4689" x2="27.3526" y2="35.7263" gradientUnits="userSpaceOnUse">
<stop offset="0.1043" stop-color="#035421"/>
<stop offset="0.4356" stop-color="#26AF64"/>
</linearGradient>
<linearGradient id="paint2_linear_98_2512" x1="-1.03716" y1="7.42807" x2="16.9299" y2="18.2237" gradientUnits="userSpaceOnUse">
<stop offset="0.6196" stop-color="#4CA58A"/>
<stop offset="1" stop-color="#035421"/>
</linearGradient>
<linearGradient id="paint3_linear_98_2512" x1="-9.00384" y1="26.0401" x2="3.45987" y2="33.5291" gradientUnits="userSpaceOnUse">
<stop offset="0.1534" stop-color="#26AF64"/>
<stop offset="0.237" stop-color="#23A75E"/>
<stop offset="0.3702" stop-color="#1A8F4D"/>
<stop offset="0.5355" stop-color="#0B6A31"/>
<stop offset="0.6196" stop-color="#035421"/>
</linearGradient>
<clipPath id="clip0_98_2512">
<rect width="32" height="32" fill="white" transform="translate(0.5 4)"/>
</clipPath>
</defs>
</svg>

<?xml version="1.0" encoding="utf-8"?>
<!-- Generator: Adobe Illustrator 27.9.0, SVG Export Plug-In . SVG Version: 6.00 Build 0)  -->
<svg version="1.1" id="Layer_1" xmlns="http://www.w3.org/2000/svg" xmlns:xlink="http://www.w3.org/1999/xlink" x="0px" y="0px"
	 viewBox="0 0 166 40" style="enable-background:new 0 0 166 40;" xml:space="preserve">
<style type="text/css">
	.st0{fill:#FFFFFF;}
	.st1{fill:#0DC09D;}
</style>
<path class="st0" d="M41.6,24.7h3.9c0.2,2.1,2.3,3.4,5.1,3.4c2.7,0,4.6-1.3,4.6-3.2c0-1.6-1.2-2.6-4-3.2L48.2,21
	c-4.2-1-6.1-3-6.1-6.2c0-4,3.5-6.7,8.4-6.7c5,0,8.2,2.7,8.3,6.7H55c-0.2-2.1-2-3.4-4.5-3.4c-2.5,0-4.3,1.2-4.3,3.1
	c0,1.5,1.1,2.4,3.9,3l2.6,0.6c4.6,1,6.5,2.9,6.5,6.3c0,4.3-3.4,7-8.9,7C45.1,31.4,41.7,28.8,41.6,24.7z M66.3,8.5v14.2
	c0,3.1,1.9,5.2,5.2,5.2c3.3,0,5.2-2.1,5.2-5.2V8.5h4V23c0,4.9-3.5,8.3-9.3,8.3c-5.7,0-9.3-3.4-9.3-8.3V8.5H66.3z M108.1,8.5V31h-3.6
	V15h-0.1l-6.5,15.8h-2.8L88.5,15h-0.1v16h-3.6V8.5h4.7l6.9,17h0.1l6.9-17H108.1z M135.3,8.5V31h-3.6V15h-0.1l-6.5,15.8h-2.8
	L115.8,15h-0.1v16H112V8.5h4.7l6.9,17h0.1l6.9-17H135.3z M143.3,31h-4V8.5h4V31z M156.9,31h-4V11.9h-6.8V8.5h17.7v3.4h-6.8V31z"/>
<path class="st1" d="M0.7,9.3c5,0.3,9,4.3,9.3,9.3h5.8C15.5,10.4,8.9,3.8,0.7,3.5V9.3z"/>
<path class="st1" d="M10,19.9c-0.3,5-4.3,9-9.3,9.3V35c8.2-0.3,14.8-6.9,15.1-15.1H10z"/>
<path class="st1" d="M23,18.6c0.3-5,4.3-9,9.3-9.3V3.5c-8.2,0.3-14.8,6.9-15.1,15.1H23z"/>
<path class="st1" d="M32.3,29.2c-5-0.3-9-4.3-9.3-9.3h-5.8c0.3,8.2,6.9,14.8,15.1,15.1V29.2z"/>
</svg>
